X:1
T:[ID 7-19a]
T:[ID 7-19a]
T:Bezeichnung standardisiert: Menuett Menuet
T:Urheber unbekannt Datum in der hier transkribierten schriftlichen Quelle: 1776 - 1791
C:Urheber unbekannt
C:Datum in der hier transkribierten schriftlichen Quelle: 1776 - 1791
L:1/8
M:3/4
K:D
V:1 treble 
V:1
 DFAd fa | g2 ec d2 | Adfa d'a | a2 g2 f2 | g2 bgec | f2 afdA | g2 g2 f2 | e6 :: A2 A2 (3cde | %9
 A2 A2 ec | A2 g2 (3fga | ec A2 a2 | (3bag (3agf (3gfe |{d} c2 BA d2 | egfedc | d6 :| %16

